craft/templates/elements/components/work/waves-pattern-white-top.svg

<?xml version="1.0" encoding="UTF-8" standalone="no"?>
<svg width="80px" height="6px" viewBox="0 0 80 6" version="1.1" xmlns="http://www.w3.org/2000/svg" xmlns:xlink="http://www.w3.org/1999/xlink">
    <!-- Generator: Sketch 40.2 (33826) - http://www.bohemiancoding.com/sketch -->
    <title>waves-pattern-white-top</title>
    <desc>Created with Sketch.</desc>
    <defs></defs>
    <g id="Page-1" stroke="none" stroke-width="1" fill="none" fill-rule="evenodd">
        <g id="waves-pattern-white-top">
            <g id="background" transform="translate(20.000000, 0.000000)" fill="#FFFFFF">
                <path d="M59.8079294,5.71999982 L60,5.71999982 L60,0 L40,0 L40,5.71999982 L40.1920706,5.71999982 C45.0008413,5.58225464 45.0648576,0.272727273 50,0.272727273 C54.9351424,0.272727273 54.9991587,5.58225464 59.8079294,5.71999982 L59.8079294,5.71999982 Z" id="Combined-Shape-Copy-3"></path>
                <path d="M39.8079294,5.71999982 L40,5.71999982 L40,0 L20,0 L20,5.71999982 L20.1920706,5.71999982 C25.0008413,5.58225464 25.0648576,0.272727273 30,0.272727273 C34.9351424,0.272727273 34.9991587,5.58225464 39.8079294,5.71999982 L39.8079294,5.71999982 Z" id="Combined-Shape-Copy-4"></path>
                <path d="M19.8079294,5.71999982 L20,5.71999982 L20,0 L0,0 L0,5.71999982 L0.192070589,5.71999982 C5.0008413,5.58225464 5.06485755,0.272727273 10,0.272727273 C14.9351424,0.272727273 14.9991587,5.58225464 19.8079294,5.71999982 L19.8079294,5.71999982 Z" id="Combined-Shape-Copy-5"></path>
                <path d="M-0.192070589,5.71999982 L0,5.71999982 L0,0 L-20,0 L-20,5.71999982 L-19.8079294,5.71999982 C-14.9991587,5.58225464 -14.9351424,0.272727273 -10,0.272727273 C-5.06485755,0.272727273 -5.0008413,5.58225464 -0.192070589,5.71999982 L-0.192070589,5.71999982 Z" id="Combined-Shape-Copy-6"></path>
            </g>
            <g id="waves" stroke="#CCCCCC" stroke-width="0.5">
                <path d="M1.97215226e-31,5.72727273 C5,5.72727273 5,0.272727273 10,0.272727273 C15,0.272727273 15,5.72727273 20,5.72727273" id="Line"></path>
                <path d="M20,5.72727273 C25,5.72727273 25,0.272727273 30,0.272727273 C35,0.272727273 35,5.72727273 40,5.72727273" id="Line-Copy"></path>
                <path d="M40,5.72727273 C45,5.72727273 45,0.272727273 50,0.272727273 C55,0.272727273 55,5.72727273 60,5.72727273" id="Line-Copy-3"></path>
                <path d="M60,5.72727273 C65,5.72727273 65,0.272727273 70,0.272727273 C75,0.272727273 75,5.72727273 80,5.72727273" id="Line-Copy-2"></path>
            </g>
        </g>
    </g>
</svg>

<svg width="80" height="6" viewBox="0 0 80 6" xmlns="http://www.w3.org/2000/svg"><title>waves-pattern-white-top</title><g fill="none" fill-rule="evenodd"><g fill="#FFF"><path d="M79.808 5.72H80V0H60v5.72h.192C65.002 5.582 65.065.273 70 .273s5 5.31 9.808 5.447zM59.808 5.72H60V0H40v5.72h.192C45.002 5.582 45.065.273 50 .273s5 5.31 9.808 5.447zM39.808 5.72H40V0H20v5.72h.192C25.002 5.582 25.065.273 30 .273s5 5.31 9.808 5.447zM19.808 5.72H20V0H0v5.72h.192C5.002 5.582 5.065.273 10 .273s5 5.31 9.808 5.447z"/></g><g stroke="#CCC" stroke-width=".5"><path d="M0 5.727c5 0 5-5.454 10-5.454s5 5.454 10 5.454M20 5.727c5 0 5-5.454 10-5.454s5 5.454 10 5.454M40 5.727c5 0 5-5.454 10-5.454s5 5.454 10 5.454M60 5.727c5 0 5-5.454 10-5.454s5 5.454 10 5.454"/></g></g></svg>
